X:135
T:Reel 135
M:4/4
K:Gmaj
L:1/8
dc|BABG DGGB|Acde d2ef|gefd cAGB|cAFA c2dc|BABc d2dc|BABc dgga|bgaf gedc|BGAF G2|BA|Gggf g2ga|bggf g2dB|FAfA gfge|dcBA GFEF|GFGA B2BG|Bgef g2de|fefd cAFA|BGAF G2|
